X:1
T:Title
%%score { 1 | ( 2 3 ) }
L:1/8
Q:1/4=88
M:4/4
K:A
V:1 treble nm="Grand Piano"
V:2 bass 
V:3 bass 
V:1
 [A,DF]>^E F>=G [A,DF]>=E D2 | .[DFA]>G .[DFA]>G [FA]4 | [=GB]>d c>B [FA]>^G A2 | =G>G F>F [CE]4 | %4
w: Charles~H.~Gabriel * * * * * *||||
 [A,DF]>^E F>=G [A,DF]>=E D2 | [FA]>G A>G [FA]4 | [=GB]>d c>B [FA]>B [A,DFA]2 | %7
w: |||
 [DF]>F [CE]>E [F,D]4 | [FA]>A B>c [=Gd]>c c2 | [E=G]>G [Ac]>B [FA]4 | %10
w: |||
 [=GB]>d c>B [FA]>B [A,DFA]2 | [DF]>F [CE]>E D4 |] %12
w: ||
V:2
 z z/ G,/ [A,D]>B, z z/ =G,/ F,2 | .D,>[K:treble]^E .D,>E[K:bass] (3D,F,A, D2 | %2
 z z/[K:treble] B/ A>=G z z/ ^E/[K:bass] [F,A,DF]2 | [E,A,C]2 [D,A,D]>F, A,2 (3A,,B,,C, | %4
 z z/ G,/ [A,D]>B, z z/ =G,/ F,2 | z z/[K:treble] ^E/ F>E[K:bass] (3D,F,A, D2 | %6
 z z/[K:treble] B/ A>=G z z/ G/[K:bass] F,2 | z z/ D/ z z/ C/ D,4 | %8
 z z/[K:treble] F/ F>F z z/ =G/ [=G,A,CG]2 | z z/ E/[K:treble] z z/ =G/[K:bass] (3D,F,A, D2 | %10
 z z/[K:treble] B/ A>=G z z/ G/[K:bass] F,2 | z z/ D/ z z/ C/ [D,F,]4 |] %12
V:3
 D,4 D,4 | x3/2[K:treble] x5/2[K:bass] x4 | =G,2[K:treble] [B,D]2 D,2[K:bass] z2 | x8 | D,4 D,4 | %5
 D,2[K:treble] [F,A,D]2[K:bass] z4 | =G,2[K:treble] [B,D]2 D,2[K:bass] z2 | A,2 [A,,=G,]2 z4 | %8
 D,2[K:treble] [F,A,D]2 E,2 z2 | A,,2[K:treble] [=G,A,C]2[K:bass] z4 | %10
 =G,2[K:treble] [B,D]2 D,2[K:bass] z2 | A,2 [A,,=G,]2 z4 |] %12

